X: 24467
T: Lucky Thirteen
R: slip jig
M: 9/8
K: Eminor
M:13/28
EFG c2A BGAF GFE|EFG c2A BGAF GFD|
EFG c2e BdAG AGF|BGE AGF GFGF EFD:|
|:[M:13/28] Bge f2d BcAG ABc|Bge f2d gzfa gfd|
Bge f2a begb agf|[M:14/8] geed ~B2Ac BAG AGF:|
|:[M:14/8] fgfa g2e f2d e2Bz|[M:13/28] fgf a2f b2ag fga|
[M:14/8] gee a2bz gee f2az|[M:13/28] g2e f2d BcAG AGF:|

